{ "compressionlevel":-1,
 "height":27,
 "infinite":false,
 "layers":[
        {
         "data":[0, 0, 0, 0, 0, 0, 0, 0, 0, 0, 0, 0, 0,
            0, 15, 0, 0, 0, 0, 0, 0, 0, 0, 15, 0, 0,
            0, 0, 0, 0, 0, 15, 0, 0, 0, 15, 0, 0, 0,
            0, 0, 0, 15, 0, 0, 0, 0, 0, 0, 0, 0, 0,
            0, 0, 0, 0, 0, 0, 0, 15, 0, 0, 0, 15, 0,
            0, 0, 0, 0, 0, 0, 0, 0, 0, 0, 0, 0, 0,
            0, 0, 0, 0, 0, 0, 0, 0, 0, 0, 0, 0, 0,
            0, 0, 0, 0, 0, 0, 0, 0, 0, 0, 0, 0, 0,
            0, 0, 0, 0, 0, 0, 0, 0, 0, 0, 0, 0, 0,
            0, 0, 0, 0, 0, 0, 0, 0, 0, 0, 0, 0, 0,
            0, 0, 0, 0, 0, 0, 0, 0, 0, 0, 0, 0, 0,
            4, 4, 4, 4, 4, 31, 31, 4, 4, 4, 4, 4, 4,
            0, 0, 0, 0, 0, 0, 0, 0, 0, 0, 0, 0, 0,
            0, 0, 0, 0, 0, 0, 0, 0, 0, 0, 0, 0, 0,
            0, 0, 0, 0, 0, 0, 0, 0, 0, 0, 0, 0, 0,
            1, 1, 1, 1, 1, 1, 1, 1, 1, 1, 0, 0, 0,
            2, 2, 2, 2, 2, 2, 0, 0, 0, 9, 0, 0, 0,
            2, 2, 2, 2, 2, 2, 0, 0, 0, 9, 0, 0, 0,
            2, 2, 2, 2, 2, 2, 0, 0, 0, 9, 14, 0, 22,
            0, 0, 0, 0, 0, 0, 0, 0, 0, 3, 3, 3, 3,
            0, 0, 0, 0, 0, 0, 0, 0, 2, 2, 2, 2, 2,
            0, 0, 0, 0, 0, 0, 0, 2, 2, 2, 0, 0, 0,
            0, 0, 22, 0, 0, 0, 2, 2, 2, 2, 0, 0, 0,
            0, 0, 0, 0, 0, 2, 2, 2, 2, 2, 0, 0, 0,
            0, 13, 0, 14, 0, 22, 0, 22, 0, 22, 0, 0, 0,
            2, 2, 2, 2, 2, 2, 2, 2, 2, 2, 2, 2, 2,
            2, 2, 2, 2, 2, 2, 2, 2, 2, 2, 2, 2, 2],
         "height":27,
         "id":1,
         "name":"Ground",
         "opacity":1,
         "type":"tilelayer",
         "visible":true,
         "width":13,
         "x":0,
         "y":0
        }],
 "nextlayerid":2,
 "nextobjectid":1,
 "orientation":"orthogonal",
 "renderorder":"right-down",
 "tiledversion":"1.12.1",
 "tileheight":32,
 "tilesets":[
        {
         "firstgid":1,
         "source":"..\/..\/..\/..\/map1.tsx"
        }],
 "tilewidth":32,
 "type":"map",
 "version":"1.10",
 "width":13
}